packages/ui-icons/svg/Line/code.svg

<svg viewBox="0 0 1920 1920" version="1.1" xmlns="http://www.w3.org/2000/svg">
    <path d="M561.813333,286 L643.84,354.373333 L138.88,960.133333 L643.84,1566 L561.813333,1634.37333 L0,960.133333 L561.813333,286 Z M1362.048,286 L1923.86133,960.133333 L1362.048,1634.37333 L1280.02133,1566 L1784.98133,960.133333 L1280.02133,354.373333 L1362.048,286 Z" stroke="none" stroke-width="1" fill-rule="evenodd"/>
</svg>

<svg viewBox="0 0 1920 1920" xmlns="http://www.w3.org/2000/svg">
    <path d="m561.813 286 82.027 68.373-504.96 605.76L643.84 1566l-82.027 68.373L0 960.133 561.813 286Zm800.235 0 561.813 674.133-561.813 674.24-82.027-68.373 504.96-605.867-504.96-605.76L1362.048 286Z" fill-rule="evenodd"/>
</svg>
